X:1
T:The Ripest Apples
M:6/8
L:1/8
K:D
 FA| d3 A c3/2 B/2| B2 E2 E3/2 F/2| A3 A G3/2 E/2| F4 FA| d3 A c3/2 B/2|\
 B2 E2 EF| A2- A EFE| D4|
